X:110
T:Vals från Sörfro
R:Vals
Z:Anton Teljebäck 2007-12-12
S:känd genom [[!Zara Helje]]
O: Sörfro, Norge
N:Det finns fler låtar från [[!Norge]]
M:3/4
L:1/8
K:Ddor
A,2D2D2 | D^C DE FG | A4 A2 | A^G AB ^cd | e2 f2 f2 | f2 gf e^c | d3 ^c B^G | A6| 
A,2D2D2 | D^C DE FG | A4 A2 | A^G AB ^cd | e2 f2 f2 | f2 gf e^c | d3 d d2 | d6:| 
K:D 
a4 a2 | a2 gaba | f3e dB | A4 A2 | =c4 B2 | E3 FGA | B2 Ac eg | f4 A2 | 
a4 a2 | a2 gaba | f3e dB | A4 A2 | =c4 B2 | A3 GFE | D2 dd dd | d6 :|
(:musicend:)

(:music:)
